assets/img/braze_icons/file-plus-01.svg

<svg fill="none" height="24" viewBox="0 0 24 24" width="24" xmlns="http://www.w3.org/2000/svg"><g fill="#801ed7"><path d="m20 15c0-.5523-.4477-1-1-1s-1 .4477-1 1v2h-2c-.5523 0-1 .4477-1 1s.4477 1 1 1h2v2c0 .5523.4477 1 1 1s1-.4477 1-1v-2h2c.5523 0 1-.4477 1-1s-.4477-1-1-1h-2z"/><path d="m15.2413 1h-6.4826c-.80496-.000012-1.46933-.000022-2.01052.04419-.5621.04593-1.07881.14449-1.56414.39179-.75265.38349-1.36457.99541-1.74806 1.74806-.2473.48533-.34586 1.00204-.39179 1.56414-.04421.54119-.0442 1.20554-.04419 2.01051v10.48261c-.00001.805-.00002 1.4693.04419 2.0105.04593.5621.14449 1.0788.39179 1.5642.38349.7526.99541 1.3645 1.74806 1.748.48533.2473 1.00204.3459 1.56414.3918.54119.0442 1.20554.0442 2.0105.0442 2.09722 0 4.20162.0502 6.30122.0241.5167-.0064.775-.0096.8888-.0759.1323-.077.1633-.1139.2168-.2574.046-.1233-.012-.4872-.128-1.2149-.0247-.155-.0375-.3139-.0375-.4759-1.6569 0-3-1.3431-3-3s1.3431-3 3-3c0-1.6569 1.3431-3 3-3 .1352 0 .2682.0089.3987.0263.7766.1031 1.1649.1546 1.2862.1064.1451-.0578.1749-.0839.2513-.2201.0638-.1139.0638-.3887.0638-.9384v-4.21552c0-.80496 0-1.46931-.0442-2.0105-.0459-.5621-.1445-1.07881-.3918-1.56414-.3835-.75265-.9954-1.36457-1.748-1.74806-.4854-.2473-1.0021-.34586-1.5642-.39179-.5412-.044212-1.2055-.044202-2.0105-.04419z"/></g></svg>

<svg width="24" height="24" viewBox="0 0 24 24" fill="none" xmlns="http://www.w3.org/2000/svg">
<path d="M20 15C20 14.4477 19.5523 14 19 14C18.4477 14 18 14.4477 18 15V17H16C15.4477 17 15 17.4477 15 18C15 18.5523 15.4477 19 16 19H18V21C18 21.5523 18.4477 22 19 22C19.5523 22 20 21.5523 20 21V19H22C22.5523 19 23 18.5523 23 18C23 17.4477 22.5523 17 22 17H20V15Z" fill="#801ED7"/>
<path d="M15.2413 1H8.7587C7.95374 0.999988 7.28937 0.999978 6.74818 1.04419C6.18608 1.09012 5.66937 1.18868 5.18404 1.43598C4.43139 1.81947 3.81947 2.43139 3.43598 3.18404C3.18868 3.66937 3.09012 4.18608 3.04419 4.74818C2.99998 5.28937 2.99999 5.95372 3 6.75869V17.2413C2.99999 18.0463 2.99998 18.7106 3.04419 19.2518C3.09012 19.8139 3.18868 20.3306 3.43598 20.816C3.81947 21.5686 4.43139 22.1805 5.18404 22.564C5.66937 22.8113 6.18608 22.9099 6.74818 22.9558C7.28937 23 7.95372 23 8.75868 23C10.8559 23 12.9603 23.0502 15.0599 23.0241C15.5766 23.0177 15.8349 23.0145 15.9487 22.9482C16.081 22.8712 16.112 22.8343 16.1655 22.6908C16.2115 22.5675 16.1535 22.2036 16.0375 21.4759C16.0128 21.3209 16 21.162 16 21C14.3431 21 13 19.6569 13 18C13 16.3431 14.3431 15 16 15C16 13.3431 17.3431 12 19 12C19.1352 12 19.2682 12.0089 19.3987 12.0263C20.1753 12.1294 20.5636 12.1809 20.6849 12.1327C20.83 12.0749 20.8598 12.0488 20.9362 11.9126C21 11.7987 21 11.5239 21 10.9742V6.75868C21 5.95372 21 5.28937 20.9558 4.74818C20.9099 4.18608 20.8113 3.66937 20.564 3.18404C20.1805 2.43139 19.5686 1.81947 18.816 1.43598C18.3306 1.18868 17.8139 1.09012 17.2518 1.04419C16.7106 0.999978 16.0463 0.999988 15.2413 1Z" fill="#801ED7"/>
</svg>
